X: 134002
T: APPLES IN WINTER
Q: "Irish Reel."
R: Reel.
%R: reel
B: James Kerr "Merry Melodies" v.1 p.34 s.0 #2
Z: 2017 John Chambers <jc:trillian.mit.edu>
M: C
L: 1/8
K: Am
|:\
ve2cA e2cA | G2GE G2G2 |\
uA2AB cBcd | (ea)ag edd2 :|\
egg^f eggf | eaag eaag |
egg^f eggf | (ea)ag edd2 |\
egg^f eggf | eaag eaag |\
eddc c2(cd) | (ea)ag edd2 |]

%%sep 1 1 500
%%sep 1 1 500

